X: 4
T: Irish Lamentation
R: waltz
M: 3/4
L: 1/8
K: Gmaj
GA| B2 B2 B>c | B3 A G2 | g2 A2 AB |A4 GA |B2 c>B A>G | E2 D2 BA | G2 G2 GA | G4 :||: GA | B2 d2 d2 | de dB A>B |G2 g2 ga | g4 :| de | =fef g fg | ede geg | d2 ed cB | A4 GA |B2 d>B A>G | E2 D2 BA | G2 G2 GA | G4 ||


Tune 8973	Setting 27809

